X:6012
T:Gan Ainm
R:reel
S:Natalie McMaster
H:
N:
D:Solo Album #1
Z:Adrian Scahill
M:4/4
L:1/8
K:D
D2FD A,DFD|A,DFA Bdcd|A,2CE GECE|edcB AGFE|\
(3FED FD ADFD|A,DFA BcdB|GFGA BcdB|AGFE FDDg||
fafd AFDg|fafd AFDf|gfge cAce|gfed cdef|\
gafg efde|cdBc ABGF|GFGA Bcde|fgec dBAF||


